X:1
T:Young Men In Their Bloom (march)
M:4/4
L:1/8
O:Trad. (3.9.2014/NS)
R:march
K:Emin
|:"Em"EGEF GFG2|BAB2 e2ef|"C"gfe2 dcB2|"D"ABG2 FED2|
"Em"EGEF GFG2|BAB2 e2ef|"C"gfe2 dcB2|"D"AGF2  "Em"E4:|
|:"Em"EGE2 B4|EGE2  B^cd2|"D"DED2 A4|DED2 AGF2|
"Em"EGE2 B4|EGE2 e3f|"C"gfe2 dcB2|"D"AGF2  "Em"E4:|
